X:1
T:Title
%%score { ( 1 4 ) | ( 2 3 ) }
L:1/8
M:6/8
K:Eb
V:1 treble nm="Grand Piano"
V:4 treble 
V:2 bass 
V:3 bass 
V:1
 z3 z2[Q:1/4=100] [GB] | [GB]=A[EGB] [E_Ac]2 [B,GB] | [G,E]3- [G,E]2 [G,E] | %3
 [G,E][B,F][CEG] [CFc]2 [CEF] | [DF]3- [DF]2 [DF] | G_G=G [GB][_G=A][=GB] | e2 e edc | %7
 [GB]c[B,GB] [B,EG]2 [A,DF] |[M:5/8] [G,E]-[G,E]- [G,E]3 |[M:1/8] z |[M:3/4] G4 z2 | %11
 [Ac]B [EGB] .[EGB]3 | d4 z2 | [FA]G F .G3 | [Ge]3 e dc | [GB]c [B,GB] .[B,EG]3 | %16
 [DF]3 [EG]2 [A,DF] | E6 | z2 z G, G[Ac] | [GB]3 .[EG]3 | [DF]4 [Ec][EB] | [G-B]4 G2 | %22
 e3- [Ee] dc | [GB]c [B,GB] .[B,EG]3 | F4 z2 |[M:5/8] [G,B,E]-[G,B,E]- [G,B,E]3 |] %26
V:2
 z3 z2 [E,E] | .[E,E]3 z3 | E,3- E,2 E, | E,D,C, A,,2 =A,, | [B,,B,]3- [B,,B,]2 [B,,B,] | .B,3 z3 | %6
 z3 .C3 | .[E,B,]3 z3 |[M:5/8] E,-E,- E,3 |[M:1/8] z |[M:3/4] E4 z2 | z G E, .E,3 | F4 z2 | %13
 z E [E,B,D] .[E,B,E]3 | [E,B,]3 [A,CE] [A,B,E][A,E] | z A E, .E,3 | z2 z B,2 B,, | [E,G,]6 | %18
 [E,G,]2 z E, [E,B,][E,E] | [E,E]2 [E,E] .[E,B,]3 | [B,,B,]2 z [B,,B,] [B,,A,][B,,G,] | %21
 E,2 E, .[E,B,]3 | [E,B,]3 [A,C] [A,B,E][A,E] | z A E, .E,3 | z2 z G2 B,, |[M:5/8] E,-E,- E,3 |] %26
V:3
 x6 | z _GE, E,2 E, | x6 | x6 | x6 | [E,E]-[E,=A,E][F,B,E] [E,E]2 [E,E] | %6
 [G,B,E]2 [G,B,E] [A,E]-[A,B,E][A,E] | z AE, B,,2 B,, |[M:5/8] x5 |[M:1/8] x | %10
[M:3/4] z2 z E, [E,A,D][E,G,] | [E,B,]2 z2 z2 | z2 z B,, [B,,B,][B,,B,] | [E,B,]2 z2 z2 | x6 | %15
 [E,B,]2 z2 z2 | B,,6 | x6 | x6 | x6 | x6 | x6 | x6 | [E,B,]2 z2 z2 | B,,6 |[M:5/8] x5 |] %26
V:4
 x6 | x6 | x6 | x6 | x6 | x6 | x6 | x6 |[M:5/8] x5 |[M:1/8] x |[M:3/4] z2 z B, FE | x6 | %12
 z2 z B, [Ec][DB] | x6 | x6 | x6 | x6 | x6 | E6 | x6 | x6 | B,2 B, .e3 | G4 z2 | x6 | %24
 [B,D]4- [B,D][A,DF] |[M:5/8] x5 |] %26

